src/actions/24/path-simplify.svg

<svg xmlns="http://www.w3.org/2000/svg" viewBox="0 0 24 24">
  <defs id="defs3051">
    <style type="text/css" id="current-color-scheme">
      .ColorScheme-Text {
        color:#363636;
      }
      </style>
  </defs>
 <path style="fill:currentColor;fill-opacity:1;stroke:none" 
     d="M 10.957031 3.0019531 C 10.615931 3.0019531 10.293287 3.1298413 10.054688 3.3320312 C 9.8160865 3.5342015 9.6523506 3.7933825 9.5253906 4.0703125 C 9.2714506 4.6241625 9.1481612 5.2756606 9.0195312 5.9003906 C 8.8909015 6.5251206 8.7577515 7.1226194 8.5820312 7.5058594 C 8.4941313 7.6974794 8.4003664 7.8292506 8.3164062 7.9003906 C 8.2324063 7.9715906 8.1674265 8 8.0351562 8 C 7.9061364 8 7.8426325 7.9723575 7.7578125 7.8984375 C 7.6729125 7.8245375 7.5751881 7.6866912 7.4863281 7.4882812 C 7.3085781 7.0914512 7.175965 6.4766269 7.046875 5.8417969 C 6.917775 5.2069669 6.7951525 4.5545262 6.5390625 4.0039062 C 6.4110225 3.7285963 6.2435938 3.4693206 5.9960938 3.2753906 C 5.7486138 3.0814506 5.4156487 2.9758365 5.0742188 3.0039062 C 4.4209388 3.0576065 3.9536775 3.5488962 3.6484375 4.0976562 C 3.3431775 4.6464063 3.1504056 5.3039056 3.0097656 5.9472656 C 3.0057656 5.9660656 3.004 5.9832531 3 6.0019531 L 4.0019531 6.0019531 C 4.1277631 5.4722431 4.2920006 4.9551869 4.4941406 4.5917969 C 4.7176306 4.1900269 4.9320906 4.0198931 5.1503906 4.0019531 C 5.2808106 3.9912531 5.33202 4.0121125 5.40625 4.0703125 C 5.48045 4.1285125 5.5736664 4.2476238 5.6601562 4.4335938 C 5.8331463 4.8055237 5.96481 5.412845 6.09375 6.046875 C 6.22268 6.680905 6.3487125 7.34174 6.6015625 7.90625 C 6.7279825 8.1885 6.8889131 8.4528463 7.1269531 8.6601562 C 7.3649831 8.8674764 7.6888531 9 8.0332031 9 C 8.3743031 9 8.6969469 8.874055 8.9355469 8.671875 C 9.1741469 8.469695 9.3378838 8.2085606 9.4648438 7.9316406 C 9.7187838 7.3777906 9.8420631 6.7302087 9.9707031 6.1054688 C 10.099333 5.4807388 10.232493 4.8793338 10.408203 4.4960938 C 10.496103 4.3044637 10.591811 4.1746556 10.675781 4.1035156 C 10.759781 4.0323156 10.824761 4.0019531 10.957031 4.0019531 C 11.089301 4.0019531 11.152285 4.0313625 11.234375 4.1015625 C 11.316375 4.1717625 11.410124 4.3028206 11.496094 4.4941406 C 11.668024 4.8767706 11.794542 5.4778956 11.919922 6.1035156 C 12.045292 6.7291256 12.169734 7.3775335 12.427734 7.9335938 C 12.556724 8.2116235 12.723617 8.4744013 12.966797 8.6757812 C 13.209987 8.8771613 13.533876 9 13.878906 9 C 14.223936 9 14.550689 8.8761681 14.792969 8.6738281 C 15.035249 8.4714781 15.199562 8.2099906 15.326172 7.9316406 C 15.579362 7.3749306 15.696589 6.7262925 15.818359 6.1015625 C 15.940139 5.4768125 16.065271 4.8764838 16.238281 4.4960938 C 16.324781 4.3058937 16.420879 4.1764487 16.505859 4.1054688 C 16.590859 4.0344686 16.660674 4.0019531 16.802734 4.0019531 C 17.086884 4.0019531 17.284916 4.1564956 17.509766 4.5410156 C 17.721616 4.9032756 17.888106 5.4447831 18.003906 6.0019531 L 19 6.0019531 C 18.994 5.9685531 18.990575 5.9377969 18.984375 5.9042969 C 18.856485 5.2481469 18.670786 4.5799237 18.347656 4.0273438 C 18.024526 3.4747637 17.492784 3.0019531 16.802734 3.0019531 C 16.457704 3.0019531 16.130952 3.1277181 15.888672 3.3300781 C 15.646382 3.5324281 15.482079 3.7939156 15.355469 4.0722656 C 15.102279 4.6289756 14.985061 5.2795669 14.863281 5.9042969 C 14.741511 6.5290269 14.616379 7.1274125 14.443359 7.5078125 C 14.356859 7.6980125 14.260761 7.8274575 14.175781 7.8984375 C 14.090881 7.9694375 14.020976 8 13.878906 8 C 13.736836 8 13.664995 7.9684644 13.578125 7.8964844 C 13.491225 7.8244844 13.395041 7.6944362 13.306641 7.5039062 C 13.129851 7.1228763 13.00003 6.5261938 12.875 5.9023438 C 12.74998 5.2784937 12.629989 4.6286787 12.380859 4.0742188 C 12.256289 3.7969887 12.097055 3.5371444 11.859375 3.3339844 C 11.621695 3.1308144 11.298131 3.0019531 10.957031 3.0019531 z M 8 11 C 6.83333 11 5.5571638 11.537834 4.5273438 12.052734 C 3.7742437 12.429294 3.27707 12.734566 3 12.910156 L 3 14.101562 L 3.2773438 13.916016 C 3.2773438 13.916016 4.0024662 13.432366 4.9726562 12.947266 C 5.9428363 12.462176 7.16667 12 8 12 C 8.33333 12 8.7418885 12.182391 9.1992188 12.525391 C 9.6565486 12.868391 10.146484 13.353516 10.646484 13.853516 C 11.146484 14.353516 11.656549 14.868391 12.199219 15.275391 C 12.741889 15.682391 13.33333 16 14 16 C 15.16667 16 16.442836 15.462176 17.472656 14.947266 C 18.225286 14.570946 18.72268 14.265574 19 14.089844 L 19 12.898438 L 18.722656 13.083984 C 18.722656 13.083984 17.997534 13.567644 17.027344 14.052734 C 16.057164 14.537834 14.83333 15 14 15 C 13.66667 15 13.258111 14.819564 12.800781 14.476562 C 12.343451 14.133565 11.853516 13.646484 11.353516 13.146484 C 10.853516 12.646484 10.343451 12.133564 9.8007812 11.726562 C 9.2581115 11.319562 8.66667 11 8 11 z M 3 18 L 3 19 L 19 19 L 19 18 L 3 18 z "
     class="ColorScheme-Text"
     />
</svg>

<svg xmlns="http://www.w3.org/2000/svg" viewBox="0 0 24 24">
    <path d="M10.957 3.002c-.341 0-.664.128-.902.33a2.073 2.073 0 0 0-.53.738c-.254.554-.377 1.206-.505 1.83-.13.625-.262 1.223-.438 1.606a1.16 1.16 0 0 1-.266.394.371.371 0 0 1-.28.1.359.359 0 0 1-.278-.102 1.213 1.213 0 0 1-.272-.41c-.177-.397-.31-1.011-.44-1.646-.128-.635-.25-1.287-.507-1.838-.128-.275-.295-.535-.543-.729a1.33 1.33 0 0 0-.922-.271c-.653.054-1.12.545-1.426 1.094-.305.548-.498 1.206-.638 1.85L3 6.001h1.002c.126-.53.29-1.047.492-1.41.224-.402.438-.572.656-.59.13-.01.182.01.256.068.074.059.168.178.254.364.173.372.305.979.434 1.613s.255 1.295.508 1.86c.126.281.287.546.525.753a1.392 1.392 0 0 0 1.809.012c.238-.202.402-.463.529-.74.254-.554.377-1.202.506-1.827.128-.624.261-1.226.437-1.609.088-.192.184-.321.268-.392a.372.372 0 0 1 .281-.102c.132 0 .195.03.277.1.082.07.176.2.262.392.172.383.299.984.424 1.61.125.625.25 1.274.508 1.83.129.278.296.54.539.742.243.201.567.324.912.324.345 0 .672-.124.914-.326.242-.203.407-.464.533-.742.253-.557.37-1.206.492-1.83.122-.625.247-1.226.42-1.606.087-.19.183-.32.268-.39a.398.398 0 0 1 .297-.104c.284 0 .482.154.707.539.212.362.378.904.494 1.461H19l-.016-.098c-.128-.656-.313-1.324-.636-1.877-.323-.552-.855-1.025-1.545-1.025-.345 0-.672.126-.914.328-.243.202-.407.464-.534.742-.253.557-.37 1.208-.492 1.832-.121.625-.247 1.223-.42 1.604-.086.19-.182.32-.267.39a.397.397 0 0 1-.297.102.407.407 0 0 1-.3-.104 1.133 1.133 0 0 1-.272-.392c-.177-.381-.307-.978-.432-1.602-.125-.624-.245-1.273-.494-1.828-.125-.277-.284-.537-.522-.74a1.403 1.403 0 0 0-.902-.332zM8 11c-1.167 0-2.443.538-3.473 1.053-.753.376-1.25.682-1.527.857v1.192l.277-.186s.725-.484 1.696-.969C5.943 12.462 7.167 12 8 12c.333 0 .742.182 1.2.525.457.343.946.829 1.446 1.329s1.01 1.014 1.553 1.421c.543.407 1.134.725 1.801.725 1.167 0 2.443-.538 3.473-1.053.752-.376 1.25-.681 1.527-.857v-1.192l-.277.186s-.725.484-1.696.969c-.97.485-2.194.947-3.027.947-.333 0-.742-.18-1.2-.523-.457-.343-.946-.83-1.446-1.33-.5-.5-1.01-1.013-1.553-1.42C9.258 11.32 8.667 11 8 11zm-5 7v1h16v-1H3z" style="fill:currentColor;fill-opacity:1;stroke:none;color:#050505;opacity:.7"/>
</svg>
